assets/icons/qvision/contact_support.svg

<svg xmlns="http://www.w3.org/2000/svg" height="24" viewBox="0 0 24 24" width="24"><path d="M0 0h24v24H0z" fill="none"/><path d="M11.5 2C6.81 2 3 5.81 3 10.5S6.81 19 11.5 19h.5v3c4.86-2.34 8-7 8-11.5C20 5.81 16.19 2 11.5 2zm1 14.5h-2v-2h2v2zm0-3.5h-2c0-3.25 3-3 3-5 0-1.1-.9-2-2-2s-2 .9-2 2h-2c0-2.21 1.79-4 4-4s4 1.79 4 4c0 2.5-3 2.75-3 5z"/></svg>

<svg width="24" height="24" viewBox="0 0 24 24" fill="none" xmlns="http://www.w3.org/2000/svg">
<g clip-path="url(#clip0_147_4054)">
<path d="M11.5 2C6.81 2 3 5.81 3 10.5C3 15.19 6.81 19 11.5 19H12V22C16.86 19.66 20 15 20 10.5C20 5.81 16.19 2 11.5 2ZM12.5 16.5H10.5V14.5H12.5V16.5ZM12.5 13H10.5C10.5 9.75 13.5 10 13.5 8C13.5 6.9 12.6 6 11.5 6C10.4 6 9.5 6.9 9.5 8H7.5C7.5 5.79 9.29 4 11.5 4C13.71 4 15.5 5.79 15.5 8C15.5 10.5 12.5 10.75 12.5 13Z" fill="#323232"/>
</g>
<defs>
<clipPath id="clip0_147_4054">
<rect width="24" height="24" fill="white"/>
</clipPath>
</defs>
</svg>
